resources/haticons/SVG/question-circle-big.svg

<!-- Generated by IcoMoon.io -->
<svg version="1.1" xmlns="http://www.w3.org/2000/svg" width="24" height="24" viewBox="0 0 24 24">
<title>question-circle-big</title>
<path d="M12 0c-6.619 0-12 5.381-12 12s5.381 12 12 12 12-5.381 12-12-5.381-12-12-12zM12 22.5c-5.79 0-10.5-4.71-10.5-10.5s4.71-10.5 10.5-10.5 10.5 4.71 10.5 10.5-4.71 10.5-10.5 10.5zM12.203 3.911c-2.963 0-5.374 2.411-5.374 5.37 0 0.413 0.337 0.75 0.75 0.75s0.75-0.337 0.75-0.75c0-2.134 1.736-3.87 3.874-3.87 2.134 0 3.87 1.736 3.87 3.87s-1.736 3.87-3.87 3.87c-0.413 0-0.75 0.337-0.75 0.75v2.899c0 0.413 0.337 0.75 0.75 0.75s0.75-0.337 0.75-0.75v-2.201c2.606-0.367 4.62-2.614 4.62-5.321 0-2.955-2.407-5.366-5.37-5.366zM13.024 19.65c0 0.454-0.368 0.821-0.821 0.821s-0.821-0.368-0.821-0.821c0-0.454 0.368-0.821 0.821-0.821s0.821 0.368 0.821 0.821z"></path>
</svg>

<svg xmlns="http://www.w3.org/2000/svg" width="24" height="24"><path d="M12 0C5.381 0 0 5.381 0 12s5.381 12 12 12 12-5.381 12-12S18.619 0 12 0zm0 22.5C6.21 22.5 1.5 17.79 1.5 12S6.21 1.5 12 1.5 22.5 6.21 22.5 12 17.79 22.5 12 22.5zm.203-18.589a5.38 5.38 0 0 0-5.374 5.37c0 .413.337.75.75.75s.75-.337.75-.75a3.875 3.875 0 0 1 3.874-3.87c2.134 0 3.87 1.736 3.87 3.87s-1.736 3.87-3.87 3.87a.752.752 0 0 0-.75.75V16.8c0 .413.337.75.75.75s.75-.337.75-.75v-2.201a5.383 5.383 0 0 0 4.62-5.321 5.375 5.375 0 0 0-5.37-5.366zm.821 15.739a.82.82 0 1 1-1.642 0 .82.82 0 0 1 1.642 0z"/></svg>
